ressources/media/window-close.svg

<svg xmlns="http://www.w3.org/2000/svg" width="16" height="16" viewBox="0 0 16 16">
 <defs>
  <style id="current-color-scheme" type="text/css">
   .ColorScheme-Text { color:#404040; } .ColorScheme-Highlight { color:#5294e2; }
  </style>
 </defs>
 <path style="fill:currentColor" class="ColorScheme-Text" d="M 11.003906 3.9824219 A 1 1 0 0 0 10.296875 4.2753906 L 8.0039062 6.5683594 L 5.7207031 4.2851562 A 1 1 0 0 0 5.7109375 4.2753906 A 1 1 0 0 0 5.0097656 3.9863281 L 5 4 A 1 1 0 0 0 4 5 A 1 1 0 0 0 4.2929688 5.7070312 L 6.5859375 8 L 4.2929688 10.292969 A 1 1 0 0 0 4.0039062 10.992188 A 1 1 0 0 0 5.0039062 11.992188 A 1 1 0 0 0 5.7109375 11.699219 L 8.0039062 9.40625 L 10.287109 11.689453 A 1 1 0 0 0 11.003906 11.992188 A 1 1 0 0 0 12.003906 10.992188 A 1 1 0 0 0 11.710938 10.285156 L 9.4101562 7.9863281 L 11.693359 5.703125 A 1 1 0 0 0 12.003906 4.9824219 A 1 1 0 0 0 11.003906 3.9824219 z"/>
</svg>

<svg height="16" width="16" xmlns="http://www.w3.org/2000/svg"><path d="m11.004 3.982a1 1 0 0 0 -.707.293l-2.293 2.293-2.283-2.283a1 1 0 0 0 -.711-.299l-.01.014a1 1 0 0 0 -.707 1.707l2.293 2.293-2.293 2.293a1 1 0 0 0 .711 1.699 1 1 0 0 0 .707-.293l2.293-2.293 2.283 2.283a1 1 0 0 0 1.717-.697 1 1 0 0 0 -.293-.707l-2.301-2.299 2.283-2.283a1 1 0 0 0 -.689-1.721z" fill="#404040"/></svg>
